X: 8605
T: Cronin's
R: reel
M: 4/4
K: Cmajor
|:("C"C2"c"C)D EG "c"G2|cd"c"ed cA AG|"F"(3 ABc Gc Aa"f"aa|"C"ge"c"cd "G"ed"g"de|
("C"C2"c"C)D EG "c"G2|cd"c"ed cA AG|"F"(3 ABc Gc Aa"f"aa|"G"ge"g"df "C"ec"c"c2:|
|:("C"g2"c"g)a ge "c"ee|fedf ec"c"cG|"F"(3 ABc Gc Aa"f"aa|"C"ge"c"cd "G"ed"g"de|
("C"g2"c"g)a ge "c"ee|fedf ec"c"cG|"F"(3 ABc Gc Aa"f"aa|"G"ge"g"df "C"ec"c"c2:|

